X: 0209
T: the Countess of Lauderdale's Reel - 8x40R
P: the Countess of Lauderdale's Reel
C: A Mackintosh
B: Miss Milligan's Miscellany v.2 #0209
B: Originally Ours v.1 p.180 #MMM-0209
Z: 2019 John Chambers <jc:trillian.mit.edu>
N: Alternate endings rewritten to eliminate redundant pickup notes and fix the rhythm of repeats.
M: 4/4
L: 1/8
R: reel
K: A
%
e |\
"A"a2ec "E/A"fdec | "B"bBBc "E7"edcB | "A"AAGA "D"FAEA | "E7"BcdB "A"c2AE |
"A"A2EC "D"FDEC | "B"CB2c "Bm"dc"E7"dB | "A"Ac"E7"Bd "A"ce"D"df | "E7"edcB "A"c2A |
|: e |\
"A"a2ec "E/A"fdec | "B"bBBc "E7"edcB | "A"AAGA "D"FAEA | "E7"BcdB "A"c2AE |
"A"A2EC "D"FDEC | "B"CB2c "Bm"dc"E7"dB | "A"Ac"E7"Bd "A"ce"D"df | "E7"edcB "A"c2AE ||
"A"A2AE "C#/A"FEAE | "A"A2AE "C#/A"ABcB | "A"AAGA "D"FA"A"EA | "E7"BcdB "A"c2AE |
"A"A2AE "D"FE"A"AE | "A"A2Af "E7"edcB | "C#/A"Aa"D"Ba "E/A"ca"F#/D"da | "E7"f/g/a ed "A"c2A :|
